images/palette/penoff.svg

<?xml version="1.0" encoding="UTF-8" standalone="no"?>
<!-- Created with Inkscape (http://www.inkscape.org/) -->

<svg
   xmlns:svg="http://www.w3.org/2000/svg"
   xmlns="http://www.w3.org/2000/svg"
   version="1.0"
   width="55"
   height="55"
   id="svg2">
  <defs
     id="defs5" />
  <g
     transform="translate(5.2499995,-0.75000033)"
     id="g2824">
    <g
       transform="translate(-31.525379,-20.795051)"
       id="g2431">
      <path
         d="m 37.427664,63.254986 c 1.43401,0.788706 5.23977,1.402428 7.528553,1.290609 1.626167,-0.07945 3.914929,-0.479849 5.234137,-1.43401 2.238123,-1.618798 3.032695,-5.829627 5.090736,-7.671954 1.225701,-1.097229 3.231844,-2.444635 4.875634,-2.509518 2.003851,-0.07909 4.468168,1.514349 6.166244,2.581219 1.290216,0.810619 3.800127,3.369923 3.800127,3.369923"
         id="path2471"
         style="fill:none;stroke:#0080ff;stroke-width:3;stroke-linecap:round;stroke-opacity:1;stroke-dasharray:none" />
      <path
         d="m 39.220176,61.820976 1.147208,-4.660533 1.935914,0.358503 1.218909,1.075507 0.286802,2.079315 -4.588833,1.147208 z"
         id="path3245"
         style="fill:#e0e0e0;fill-opacity:1;stroke:#e0e0e0;stroke-width:1px;stroke-opacity:1" />
      <path
         d="m 37.786166,63.039885 c 1.720812,-1.864213 1.864213,-1.720812 1.864213,-1.720812"
         id="path3243"
         style="fill:none;stroke:#0060ff;stroke-width:2;stroke-linecap:round;stroke-opacity:1;stroke-dasharray:none" />
      <path
         d="M 40.869288,56.443439 59.224617,38.374911 60.658628,39.73722 42.6618,57.303845 40.869288,56.443439 z"
         id="path3247"
         style="fill:#a0a0ff;fill-opacity:1;stroke:#a0a0ff;stroke-width:1px;stroke-opacity:1" />
      <path
         d="M 44.095811,58.307652 61.949237,41.09953 63.383248,42.461839 44.454312,60.530368 44.095811,58.307652 z"
         id="path3249"
         style="fill:#8080ff;fill-opacity:1;stroke:#8080ff;stroke-width:1px;stroke-opacity:1" />
      <path
         d="m 42.231598,57.232144 1.649111,1.649111 18.28363,-17.781726 -1.505711,-1.792512 -18.42703,17.925127 z"
         id="path3251"
         style="fill:#c4c4ff;fill-opacity:1;stroke:#c4c4ff;stroke-width:1px;stroke-opacity:1" />
      <path
         d="m 61.841686,34.897436 2.437818,-2.366117 1.200984,0.84248 1.416085,1.200984 0.985882,1.272684 0.914181,1.487786 -2.366117,2.509519 -0.896257,-1.505711 -2.186866,-2.366117 -1.50571,-1.075508 z"
         id="path3255"
         style="fill:#e0a040;fill-opacity:1;stroke:#e0a040;stroke-width:1px;stroke-opacity:1" />
      <path
         d="m 59.152917,37.657905 2.294417,-2.079315 1.200984,0.84248 1.416085,1.200984 0.985882,1.272684 0.914181,1.487786 -2.079315,1.864214 -0.967957,-1.147208 -2.330267,-2.222716 -1.43401,-1.218909 z"
         id="path3253"
         style="fill:#e0e0e0;fill-opacity:1;stroke:#c4c4c4;stroke-width:1px;stroke-opacity:1" />
    </g>
  </g>
</svg>

<?xml version="1.0" encoding="UTF-8" standalone="no"?>
<!-- Created with Inkscape (http://www.inkscape.org/) -->
<svg
   xmlns:svg="http://www.w3.org/2000/svg"
   xmlns="http://www.w3.org/2000/svg"
   version="1.0"
   width="43.5"
   height="56.5"
   id="svg2">
  <defs
     id="defs5" />
  <path
     d="M 0.75,0.75 L 34.618627,0.75 C 34.618627,0.75 38.364227,1.9821101 39.669608,2.995098 C 40.856507,3.9161424 42.75,6.9480392 42.75,6.9480392 L 42.75,49.222549 C 42.75,49.222549 40.914623,52.48677 40.108824,53.285295 C 38.685367,54.6959 34.838235,55.75 34.838235,55.75 L 0.75,55.75 L 0.75,0.75 z"
     id="path2384"
     style="fill:#e0e0e0;fill-opacity:1;stroke:#a0a0a0;stroke-width:1.5;stroke-dasharray:none;stroke-opacity:1" />
  <g
     transform="translate(-31.525379,-20.795051)"
     id="g2431">
    <path
       d="M 37.427664,63.254986 C 38.861674,64.043692 42.667434,64.657414 44.956217,64.545595 C 46.582384,64.466148 48.871146,64.065746 50.190354,63.111585 C 52.428477,61.492787 53.223049,57.281958 55.28109,55.439631 C 56.506791,54.342402 58.512934,52.994996 60.156724,52.930113 C 62.160575,52.851018 64.624892,54.444462 66.322968,55.511332 C 67.613184,56.321951 70.123095,58.881255 70.123095,58.881255"
       id="path2471"
       style="fill:none;stroke:#0080ff;stroke-width:3;stroke-linecap:round;stroke-dasharray:none;stroke-opacity:1" />
    <path
       d="M 39.220176,61.820976 L 40.367384,57.160443 L 42.303298,57.518946 L 43.522207,58.594453 L 43.809009,60.673768 L 39.220176,61.820976 z"
       id="path3245"
       style="fill:#e0e0e0;fill-opacity:1;stroke:#e0e0e0;stroke-width:1px;stroke-opacity:1" />
    <path
       d="M 37.786166,63.039885 C 39.506978,61.175672 39.650379,61.319073 39.650379,61.319073"
       id="path3243"
       style="fill:none;stroke:#0060ff;stroke-width:2;stroke-linecap:round;stroke-dasharray:none;stroke-opacity:1" />
    <path
       d="M 40.869288,56.443439 L 59.224617,38.374911 L 60.658628,39.73722 L 42.6618,57.303845 L 40.869288,56.443439 z"
       id="path3247"
       style="fill:#a0a0ff;fill-opacity:1;stroke:#a0a0ff;stroke-width:1px;stroke-opacity:1" />
    <path
       d="M 44.095811,58.307652 L 61.949237,41.09953 L 63.383248,42.461839 L 44.454312,60.530368 L 44.095811,58.307652 z"
       id="path3249"
       style="fill:#8080ff;fill-opacity:1;stroke:#8080ff;stroke-width:1px;stroke-opacity:1" />
    <path
       d="M 42.231598,57.232144 L 43.880709,58.881255 L 62.164339,41.099529 L 60.658628,39.307017 L 42.231598,57.232144 z"
       id="path3251"
       style="fill:#c4c4ff;fill-opacity:1;stroke:#c4c4ff;stroke-width:1px;stroke-opacity:1" />
    <path
       d="M 61.841686,34.897436 L 64.279504,32.531319 L 65.480488,33.373799 L 66.896573,34.574783 L 67.882455,35.847467 L 68.796636,37.335253 L 66.430519,39.844772 L 65.534262,38.339061 L 63.347396,35.972944 L 61.841686,34.897436 z"
       id="path3255"
       style="fill:#e0a040;fill-opacity:1;stroke:#e0a040;stroke-width:1px;stroke-opacity:1" />
    <path
       d="M 59.152917,37.657905 L 61.447334,35.57859 L 62.648318,36.42107 L 64.064403,37.622054 L 65.050285,38.894738 L 65.964466,40.382524 L 63.885151,42.246738 L 62.917194,41.09953 L 60.586927,38.876814 L 59.152917,37.657905 z"
       id="path3253"
       style="fill:#e0e0e0;fill-opacity:1;stroke:#c4c4c4;stroke-width:1px;stroke-opacity:1" />
  </g>
</svg>
